X:822
T:Reel 822
M:4/4
K:Gmaj
L:1/8
GB|dGBG FGAc|BGBd g2f2|dGBG FGAc|BGAF G2:|Bc|dgfg a2ag|faaf g2d2|fgaf b2ag|fdef g2d2|fgaf g2ag|fgaf gfd2|defg aggf|edef g2|
